X:1
T:MÃ¤lchler-Juiz 2013  Bb  ABAC
T:Sepp JÃ¶ri (*04.12.1950)
T:Dirigenten-Notiz: Edi Gasser
C:Unterwalden (CH)
P:ABAC
R:Naturjodel
M:4/4
L:1/8
K:Bb
[P:A] "sehr langsam" D>F B | F4B2c2 | d4d2c2 | B4D>FB2 | FBd4 (3fed
f2f>dc2Ff | c2cBA2AB | c2cBA2Ff | c2Ffc2d2 | B6z2 || 
L:1/4
M:3/4
[P:B] "zÃ¼gig, gemÃ¼tvoll" B/c/|dBF/F/ | Bdf | [M:4/4] c>d cA/B/ | [M:3/4] cAF/F/ | fcf | d>cB B/c/  |
dBF/F/ | Bdf | [M:4/4] c>dcA/B/ | [M:3/4] cAF/F/ | fcd | (B3 | B)z/F/ B/c/ | 
dBF/F/ | Bdf | [M:4/4] c>dcA/B/ | [M:3/4] cAF/F/ | fcf | d>cB B/c/ |
dBF/F/ | Bdf | [M:4/4] c>dcA/B/ | [M:3/4] cAF/F/ | fcd | (B3 | B)z/z/z || 
M:4/4
[P:C]  "frisch, lÃ¼pfig" F/F/ | BF/F/cF/F/ | d>cB2 | D>FBd | c2AF/F/ | AF/F/cF/F/ | e>dc2 | 
e>dcf | "rit."d2 !breath! !fermata!BF/F/ | BF/F/cF/F/ | d>cB2 | D>FBd | c2AF/F/ | 
AF/F/cF/F/ | f>ec2 | f>ecf | d2!breath! !fermata!BF/F/ | BF/F/cF/F/ | d>cB2 | D>FBd | 
c2AF/F/ | AF/F/cF/F/ | e>dc2 | e>dcf | "rit."d2 !breath! !fermata!BF/F/ | BF/F/cF/F/ | 
d>cB2 | D>FBd | c2AF/F/ | AF/F/cF/F/ | f>ec2 | "rit."f>fdc | B4 |] 
W:
W:Reihenfolge: A - B - A (piano) - C
W:notiert Edi Gasser %Angaben: 
W:UJV-Naturjodelsammlung: Code-Nr: 63-01
W:http://www.naturjodler.ch/code 63htm  (with AUDIO)
%October 06, 2018

